packages/icons/src/code.svg

<svg width="15" height="15" viewBox="0 0 15 15" fill="none" xmlns="http://www.w3.org/2000/svg">
  <path
    fill-rule="evenodd"
    clip-rule="evenodd"
    d="M9.96424 2.68571C10.0668 2.42931 9.94209 2.13833 9.6857 2.03577C9.4293 1.93322 9.13832 2.05792 9.03576 2.31432L5.03576 12.3143C4.9332 12.5707 5.05791 12.8617 5.3143 12.9642C5.5707 13.0668 5.86168 12.9421 5.96424 12.6857L9.96424 2.68571ZM3.85355 5.14646C4.04882 5.34172 4.04882 5.6583 3.85355 5.85356L2.20711 7.50001L3.85355 9.14646C4.04882 9.34172 4.04882 9.6583 3.85355 9.85356C3.65829 10.0488 3.34171 10.0488 3.14645 9.85356L1.14645 7.85356C0.951184 7.6583 0.951184 7.34172 1.14645 7.14646L3.14645 5.14646C3.34171 4.9512 3.65829 4.9512 3.85355 5.14646ZM11.1464 5.14646C11.3417 4.9512 11.6583 4.9512 11.8536 5.14646L13.8536 7.14646C14.0488 7.34172 14.0488 7.6583 13.8536 7.85356L11.8536 9.85356C11.6583 10.0488 11.3417 10.0488 11.1464 9.85356C10.9512 9.6583 10.9512 9.34172 11.1464 9.14646L12.7929 7.50001L11.1464 5.85356C10.9512 5.6583 10.9512 5.34172 11.1464 5.14646Z"
    fill="currentColor"
  />
</svg>

<svg xmlns="http://www.w3.org/2000/svg" width="15" height="15" fill="none"><path fill="currentColor" fill-rule="evenodd" d="M9.964 2.686a.5.5 0 1 0-.928-.372l-4 10a.5.5 0 1 0 .928.372zm-6.11 2.46a.5.5 0 0 1 0 .708L2.207 7.5l1.647 1.646a.5.5 0 1 1-.708.708l-2-2a.5.5 0 0 1 0-.708l2-2a.5.5 0 0 1 .708 0m7.292 0a.5.5 0 0 1 .708 0l2 2a.5.5 0 0 1 0 .708l-2 2a.5.5 0 0 1-.708-.708L12.793 7.5l-1.647-1.646a.5.5 0 0 1 0-.708" clip-rule="evenodd"/></svg>
